X:211
T:A Little Cup of Coffee and a Little More Tea
R:
M:4/4
K:D
D>E F>B A>A (3Bcc | d2 F2 A3 A | B2 E2 G>F G>B | A2 D2 F3 E |
D>E F>B A>A (3Bcc | d2 F2 A3 A | B2 E2 G>F G>E | D2 F2 D4 :|
d2 F2 A2 D2 | C>D E>F G4 | B2 E2 G2 E2 | D>G F>B A4 |
d2 F2 A2 D2 | C>D E>F G4 | B2 E2 G2 E>E | D2 F2 D4 :|
